X:1026
%%etbk:tnset id:75,pos:3,rep:3
%%etbk:site1 http://www.thesession.org/tunes/display/1868
T: Nightingale, The
Z: Piano Box Version by Martin Fleischmann (www.boxplayer.ch)
M: 6/8
L: 1/8
R: jig
K: Ador
|: "am"!1!E!3!A!1!A A2B | !3!cAd !3!c!1!A!2!G | "G"!1!E!2!D!1!E !2!GGG | !1!DEF !4!GFG |
"am"!1!E!3!A!2!G !1!A2B | !3!cAB c!4!d!2!e | "G"!4!g!3!g!4!g ege | !1!d!3!B!1!G "am"!2!A3:|
|: "am"!5!a!2!ea aef | "G"!4!g!1!dg gdg | "am"!5!a!2!ea aef | "G"!4!gfe def |
!4!g2e !3!fed | {g}!2!e!1!d!2!B !1!G!2!B!3!d | !5!g2g !2!e!4!ge | !1!d!3!B!1!G "am"!2!A3:|

